X:132
T:Jovial Fellow THO3.132
O:England;London
M:C
L:1/8
Z:vmp. Peter Dunk 2011.from a transcription by Fynn Titford-Mock 2006-9
B:Thompson's Compleat Collection of 200 Favourite Country Dances Vol. III.1765-72
Q:1/4=140
K:C
G|cGEG F(A/B/c)F|E(A/B/c)E D[BB,][GG,]G|cGEG F(B/c/d)F|EcEB c3:|
|:A|G/G/G BG dBfd|gedc BdBG|c/c/c ec ge c'a|gfed c3:|

